X: 4294
T: CORK HORNPIPE
R: Hornpipe.
%R: hornpipe, reel
B: James Kerr "Merry Melodies" v.4 p.31 #294
Z: 2016 John Chambers <jc:trillian.mit.edu>
M: C|
L: 1/8
K: G
(Bc) |\
dBGB d2(gf) | egfe d2d2 |\
[1,3 cedc BdcB | c2A2A2 :|\
[2,4 cdcB AcBA | B2G2G2 |:\
(gf) |\
g2G2 G2(gf) |
e2E2 E2(ed) |\
cedc BdcB | c2A2 A2(Bc) |\
dBGB d2(gf) | egfe d2d2 |\
BdcB AcBA | B2G2G2 :|

%%sep 1 1 500
%%sep 1 1 500

